X: 1018
T: Almond Tree, The
R: jig
M: 6/8
K: Eminor
A|:BEE GEB|EGB AFD|E3 GEB|d3 AFD|
BEE GEB|EGB AFD|GEB AFd|AFD E2A:|
|:Bee ged|Bed BAG|E3 GEB|EGB AFD|
Bee ged|edg edB|AFd AFD|EFD E3:|

